X:1
T:In Memoriam (Roberts), 87.87 D
T:In Memoriam (Roberts), 87.87 D
T:Caradog Roberts (1878-1935)
T:Public Domain Courtesy of the Cyber Hymnal™
C:Caradog Roberts (1878-1935)
Z:Public Domain
Z:Courtesy of the Cyber Hymnal™
%%score ( 1 2 ) ( 3 4 )
L:1/8
Q:1/4=105
M:4/4
K:G
V:1 treble 
V:2 treble 
V:3 bass 
V:4 bass 
V:1
 [EG]2 [DG]2 | [CG]3 [CF] [B,E]2 [B,^D]2 | [^DF]2 E2 [GB]2 [FB]2 | [EB]3 [EA] [EG]2 [EA]2 | %4
 [^DF]4 [EG]2 [=DG]2 | [CG]3 [CF] [B,E]2 [B,^D]2 | [^DF]2 E2 [GB]2 [FA]2 | [Gd]3 G [EA]2 [FB]2 | %8
 G4 B2 B2 | [^DB]3 [EB] [AB]2 [GB]2 | [GB]2 [FB]2 d2 d2 | [Fd]3 [Gd] [cd]2 [Bd]2 | [Ad]4 B2 B2 | %13
 [Ge]3 [Ge] [Gd]2 [Fc]2 | [GB]2 [FA]2 [EG]2 [DG]2 | [CG]3 [CF] [B,E]2 [B,^D]2 | [B,E]4 |] %17
V:2
 x4 | x8 | x2 E2 x4 | x8 | x8 | x8 | x2 E2 x4 | x3 G x4 | G4 B2 B2 | x8 | x4 d2 d2 | x8 | %12
 x4 B2 B2 | x8 | x8 | x8 | x4 |] %17
V:3
 [E,B,]2 [E,B,]2 | [A,,A,]3 [A,,A,] [B,,G,]2 [B,,F,]2 | [E,A,]2 [E,G,]2 [E,B,]2 [D,B,]2 | %3
 [C,C]3 [C,C] [E,B,]2 [A,,C]2 | [B,,B,]4 [E,B,]2 [E,B,]2 | [A,,A,]3 [A,,A,] [B,,G,]2 [B,,F,]2 | %6
 [E,A,]2 [E,G,]2 [D,D]2 [C,D]2 | [B,,D]3 [E,B,] [C,C]2 [D,C]2 | [G,B,]4 B,2 B,2 | %9
 [A,B,]3 [G,B,] [F,^D]2 E2 | [B,E]2 [B,^D]2 =D2 D2 | [CD]3 [B,D] [A,F]2 G2 | [DF]4 B,2 B,2 | %13
 C3 C [B,D]2 [A,D]2 | [G,D]2 [D,C]2 [E,B,]2 [E,B,]2 | [A,,A,]3 [A,,A,] [B,,G,]2 (F,A,) | [E,G,]4 |] %17
V:4
 x4 | x8 | x8 | x8 | x8 | x8 | x8 | x8 | x4 B,2 B,2 | x6 (E,G,) | x4 D2 D2 | x6 (G,B,) | %12
 x4 B,2 B,2 | C3 C x4 | x8 | x6 B,,2 | x4 |] %17

